svg/24/stream-deck-pedal--filled.svg

<svg width="24" height="24" viewBox="0 0 24 24" fill="currentColor" xmlns="http://www.w3.org/2000/svg"><path d="M13.5 12.5C13.5 13.3284 12.8284 14 12 14C11.1716 14 10.5 13.3284 10.5 12.5C10.5 11.6716 11.1716 11 12 11C12.8284 11 13.5 11.6716 13.5 12.5Z"/><path fill-rule="evenodd" clip-rule="evenodd" d="M8.9098 4L15.0902 4L17.2275 20H6.77253L8.9098 4ZM15 12.5C15 14.1569 13.6569 15.5 12 15.5C10.3431 15.5 9 14.1569 9 12.5C9 10.8432 10.3431 9.5 12 9.5C13.6569 9.5 15 10.8432 15 12.5Z"/><path d="M20.0027 4H16.6035L18.8744 21H20C21.1045 21 22 20.1046 22 19V6C22 4.89544 21.1073 4.00001 20.0027 4Z"/><path d="M7.39648 4L3.99366 4C2.88909 4 2 4.89543 2 6V19C2 20.1046 2.89543 21 4 21L5.12563 21L7.39648 4Z"/></svg>

<svg xmlns="http://www.w3.org/2000/svg" width="24" height="24" fill="currentColor" viewBox="0 0 24 24">
  <path d="M13.5 12.5a1.5 1.5 0 1 1-3 0 1.5 1.5 0 0 1 3 0Z"/>
  <path fill-rule="evenodd" d="M8.91 4h6.18l2.137 16H6.773L8.91 4ZM15 12.5a3 3 0 1 1-6 0 3 3 0 0 1 6 0Z" clip-rule="evenodd"/>
  <path d="M20.003 4h-3.4l2.271 17H20a2 2 0 0 0 2-2V6c0-1.105-.893-2-1.997-2ZM7.396 4H3.994A1.995 1.995 0 0 0 2 6v13a2 2 0 0 0 2 2h1.126l2.27-17Z"/>
</svg>
